X: 28871
T: Myra's
R: jig
M: 6/8
K: Amajor
e|cBA AfA|eAf ecA|BAF E^DE|F3 F2e|
cBA AfA|eAf afe|BAc BAF|~A3 A2:|
|:f|e2f- f2a-|a=ge cBA|e2f ecA|cBB B2f|
e2f- f2a-|a=ge cBA|BAc BAF|~A3 A2:|

